X: 262
T:The Rollicking Irishman
% Nottingham Music Database
S:Trad, arr Phil Rowe
M:6/8
K:D
A|"D"dAF DFA|"D"ded "A"cBA|"Em"dcd "A"efg|"D"fdf "A"ecA|
"D"dAF DFA|"D"ded "A"cBA|"Em"dcd "A"efg|"D"fdd d2::
e|"D"fdf fga|"A"ecA ABc|"Bm"dcd "E7"Bcd|"A"cAA A3|
"G"BGB Bcd|"D"AFD "Bm"DFA|"Em"dcd "A7"efg|"D"fdd d2:|


